icons/linear-ele-container-bag-goods.svg

<svg xmlns="http://www.w3.org/2000/svg" width="32px" height="32px" viewBox="0 0 32 32" version="1.1">
    <title>linear-ele-container-bag-goods</title>
    <g id="linear-ele-container-bag-goods" stroke-width="1" fill-rule="evenodd">
        <path d="M16,2 C19.3137085,2 22,4.6862915 22,8 L21.9998815,9 L26,9 C26.5095492,9 26.9376134,9.38313579 26.9938837,9.88956847 L28.9938837,27.8895685 C29.0597022,28.4819344 28.5960113,29 28,29 L4,29 C3.4039887,29 2.94029783,28.4819344 3.00611627,27.8895685 L5.00611627,9.88956847 C5.06238656,9.38313579 5.49045078,9 6,9 L9.99988145,9 L10,8 C10,4.6862915 12.6862915,2 16,2 Z M25.105,11 L21.9998815,11 L22,14 C22,14.5522847 21.5522847,15 21,15 C20.4477153,15 20,14.5522847 20,14 L19.9998815,11 L11.9998815,11 L12,14 C12,14.5522847 11.5522847,15 11,15 C10.4477153,15 10,14.5522847 10,14 L9.99988145,11 L6.894,11 L5.116,27 L26.883,27 L25.105,11 Z M16,4 C13.790861,4 12,5.790861 12,8 L11.9998815,9 L19.9998815,9 L20,8 C20,5.790861 18.209139,4 16,4 Z" id="&#24418;&#29366;" fill-rule="nonzero" />
    </g>
</svg>

<svg xmlns="http://www.w3.org/2000/svg" viewBox="0 0 32 32"><path fill="currentColor" d="M16 2a6 6 0 0 1 6 6v1h4a1 1 0 0 1 .994.89l2 18A1 1 0 0 1 28 29H4a1 1 0 0 1-.994-1.11l2-18A1 1 0 0 1 6 9h4V8a6 6 0 0 1 6-6m9.105 9H22v3a1 1 0 0 1-2 0v-3h-8v3a1 1 0 0 1-2 0v-3H6.894L5.116 27h21.767zM16 4a4 4 0 0 0-4 4v1h8V8a4 4 0 0 0-4-4"/></svg>
